public/foam.svg

<svg xmlns="http://www.w3.org/2000/svg" viewBox="0 0 512 512" style="height: 512px; width: 512px;"><path d="M0 0h512v512H0z" fill="#000" fill-opacity="1"></path><g class="" transform="translate(0,0)" style=""><path d="M118.125 18.285c-50.616 0-91.848 41.234-91.848 91.85 0 16.783 4.538 32.53 12.444 46.09-2.017 6.705-3.103 13.82-3.103 21.203 0 31.782 20.04 58.905 48.158 69.44-5.863 6.96-9.414 15.922-9.414 25.67 0 11.727 5.138 22.323 13.267 29.657-36.275 7.53-63.67 39.773-63.67 78.23 0 44.01 35.88 79.89 79.893 79.89 16.252 0 31.387-4.903 44.025-13.292 13.485 18.495 35.304 30.53 59.928 30.53 33.308 0 61.144-22.157 70.482-52.414.16-.083.323-.16.483-.244 22.43-2.07 43.35-9.045 61.685-19.955 10.443 15.996 27.664 27.192 47.527 29.44-.067 1.042-.113 2.09-.113 3.147 0 26.61 21.773 48.38 48.383 48.38 26.61 0 48.383-21.77 48.383-48.38 0-19.492-11.69-36.377-28.4-44.02 2.197-5.482 3.677-11.32 4.314-17.405 15.134-13.576 24.666-33.272 24.666-55.188 0-15.132-4.552-29.203-12.346-40.937 16.048-11.97 26.48-31.09 26.48-52.563 0-29.132-19.203-53.93-45.587-62.412 1.016-4.86 1.558-9.9 1.558-15.076 0-4.87-.485-9.624-1.382-14.233 8.977-8.883 14.562-21.19 14.562-34.74 0-26.915-22.02-48.937-48.937-48.937-9.968 0-19.263 3.025-27.02 8.197-5.598-14.962-20.073-25.705-36.913-25.705-21.643 0-39.39 17.746-39.39 39.39 0 10.1 3.865 19.347 10.185 26.342-9.428 10.497-15.918 23.71-18.18 38.326-13.648-4.188-28.03-6.576-43.045-6.576-6.49 0-12.86.38-19.13 1.197-.972-30.35-20.245-56.103-47.122-66.638-15.555-28.71-45.962-48.265-80.82-48.265zm0 18.69c7.544 0 14.814 1.134 21.652 3.238-1.293-.11-2.598-.178-3.92-.178-25.298 0-45.804 20.505-45.804 45.803s20.506 45.805 45.804 45.805c25.3 0 45.805-20.507 45.805-45.805 0-6.236-1.25-12.176-3.508-17.594 8.273 11.855 13.133 26.283 13.133 41.89 0 40.517-32.645 73.16-73.162 73.16s-73.16-32.643-73.16-73.16c0-40.515 32.643-73.16 73.16-73.16zm237.502 16.22c.9 0 1.784.062 2.652.17-5.003 1.46-8.66 6.072-8.66 11.545 0 6.646 5.387 12.033 12.032 12.033 6.646 0 12.034-5.387 12.034-12.033 0-.45-.03-.894-.08-1.332 1.726 3.03 2.722 6.542 2.722 10.32 0 11.545-9.158 20.702-20.7 20.702-11.546 0-20.702-9.158-20.702-20.702 0-11.544 9.157-20.703 20.7-20.703zm63.934 17.508c3.39 0 6.637.554 9.67 1.563-9.974.273-17.978 8.425-17.978 18.464 0 10.212 8.276 18.49 18.488 18.49 10.064 0 18.233-8.043 18.47-18.05 1.032 3.064 1.6 6.352 1.6 9.783 0 16.818-13.434 30.248-30.25 30.248-16.817 0-30.248-13.43-30.248-30.247s13.433-30.25 30.25-30.25zm-95.078 88.19c3.62 0 7.13.426 10.502 1.21-15.534.07-28.107 12.68-28.107 28.23 0 15.596 12.643 28.237 28.238 28.237 15.596 0 28.237-12.64 28.237-28.236 0-4.11-.885-8.01-2.463-11.53 5.914 7.717 9.428 17.387 9.428 27.925 0 25.424-20.41 45.834-45.836 45.834-25.425 0-45.836-20.41-45.836-45.835 0-25.427 20.41-45.837 45.836-45.837zm109.32 21.668c1.165 0 2.317.057 3.462.14-10.243 5.013-17.3 15.533-17.3 27.706 0 17.03 13.805 30.836 30.835 30.836 13.4 0 24.8-8.552 29.052-20.494.52 2.808.804 5.7.804 8.666 0 25.988-20.867 46.854-46.855 46.854-25.987 0-46.855-20.866-46.855-46.854 0-25.987 20.868-46.853 46.856-46.853zM230.03 241.41c.642 0 1.282.012 1.92.026-26.22 6.906-45.556 30.77-45.556 59.158 0 33.79 27.39 61.18 61.182 61.18 33.79 0 61.18-27.39 61.18-61.18 0-4.832-.578-9.525-1.637-14.033 7.13 12.744 11.194 27.45 11.194 43.13 0 48.87-39.414 88.285-88.283 88.285-48.868 0-88.284-39.415-88.284-88.284 0-48.867 39.416-88.282 88.285-88.282zm-115.692 9.84c3.25 0 6.312.71 9.05 1.98-.377-.036-.757-.058-1.144-.058-6.776 0-12.27 5.492-12.27 12.268 0 6.775 5.494 12.267 12.27 12.267 6.71 0 12.15-5.387 12.258-12.07.726 2.16 1.125 4.478 1.125 6.902 0 11.87-9.422 21.29-21.29 21.29-11.87 0-21.29-9.422-21.29-21.29 0-11.87 9.422-21.29 21.29-21.29zm-10.49 67.973c5.03 0 9.91.615 14.582 1.75-.343-.01-.683-.03-1.028-.03-23.42 0-42.406 18.986-42.406 42.406 0 23.42 18.986 42.406 42.406 42.406 10.767 0 20.59-4.02 28.07-10.63 3.814 4.918 8.044 9.5 12.643 13.685-10.198 19.537-30.616 32.82-54.267 32.82-33.913 0-61.204-27.29-61.204-61.203 0-33.913 27.29-61.203 61.204-61.203zm291.513 3.186c2.17 0 4.3.158 6.387.44-12.363 3.926-21.322 15.492-21.322 29.156 0 16.895 13.696 30.59 30.592 30.59 14.714 0 26.997-10.39 29.923-24.233.826 3.496 1.276 7.143 1.276 10.902 0 7.137-1.584 13.883-4.406 19.922-.52-.017-1.04-.04-1.564-.04-18.91 0-35.365 11-43.313 26.91-24.85-1.25-44.43-21.618-44.43-46.792 0-25.988 20.868-46.856 46.856-46.856zm40.887 85.428c1.986 0 3.92.196 5.793.56-7.416 1.746-12.94 8.388-12.94 16.336 0 9.28 7.52 16.8 16.797 16.8 9.28 0 16.8-7.52 16.8-16.8 0-.294-.03-.58-.046-.873 2.1 4.084 3.29 8.726 3.29 13.67 0 16.51-13.184 29.694-29.694 29.694-16.51 0-29.693-13.183-29.693-29.693s13.183-29.693 29.693-29.693z" fill="#fff" fill-opacity="1"></path></g></svg>

<?xml version="1.0" encoding="UTF-8" standalone="no"?>
<!DOCTYPE svg PUBLIC "-//W3C//DTD SVG 1.1//EN" "http://www.w3.org/Graphics/SVG/1.1/DTD/svg11.dtd">
<svg width="100%" height="100%" viewBox="0 0 512 512" version="1.1" xmlns="http://www.w3.org/2000/svg" xmlns:xlink="http://www.w3.org/1999/xlink" xml:space="preserve" xmlns:serif="http://www.serif.com/" style="fill-rule:evenodd;clip-rule:evenodd;stroke-linejoin:round;stroke-miterlimit:2;">
    <g>
        <path d="M118.125,18.285C67.509,18.285 26.277,59.519 26.277,110.135C26.277,126.918 30.815,142.665 38.721,156.225C36.704,162.93 35.618,170.045 35.618,177.428C35.618,209.21 55.658,236.333 83.776,246.868C77.913,253.828 74.362,262.79 74.362,272.538C74.362,284.265 79.5,294.861 87.629,302.195C51.354,309.725 23.959,341.968 23.959,380.425C23.959,424.435 59.839,460.315 103.852,460.315C120.104,460.315 135.239,455.412 147.877,447.023C161.362,465.518 183.181,477.553 207.805,477.553C241.113,477.553 268.949,455.396 278.287,425.139C278.447,425.056 278.61,424.979 278.77,424.895C301.2,422.825 322.12,415.85 340.455,404.94C350.898,420.936 368.119,432.132 387.982,434.38C387.915,435.422 387.869,436.47 387.869,437.527C387.869,464.137 409.642,485.907 436.252,485.907C462.862,485.907 484.635,464.137 484.635,437.527C484.635,418.035 472.945,401.15 456.235,393.507C458.432,388.025 459.912,382.187 460.549,376.102C475.683,362.526 485.215,342.83 485.215,320.914C485.215,305.782 480.663,291.711 472.869,279.977C488.917,268.007 499.349,248.887 499.349,227.414C499.349,198.282 480.146,173.484 453.762,165.002C454.778,160.142 455.32,155.102 455.32,149.926C455.32,145.056 454.835,140.302 453.938,135.693C462.915,126.81 468.5,114.503 468.5,100.953C468.5,74.038 446.48,52.016 419.563,52.016C409.595,52.016 400.3,55.041 392.543,60.213C386.945,45.251 372.47,34.508 355.63,34.508C333.987,34.508 316.24,52.254 316.24,73.898C316.24,83.998 320.105,93.245 326.425,100.24C316.997,110.737 310.507,123.95 308.245,138.566C294.597,134.378 280.215,131.99 265.2,131.99C258.71,131.99 252.34,132.37 246.07,133.187C245.098,102.837 225.825,77.084 198.948,66.549C183.393,37.839 152.986,18.284 118.128,18.284L118.125,18.285ZM118.125,36.975C125.669,36.975 132.939,38.109 139.777,40.213C138.484,40.103 137.179,40.035 135.857,40.035C110.559,40.035 90.053,60.54 90.053,85.838C90.053,111.136 110.559,131.643 135.857,131.643C161.157,131.643 181.662,111.136 181.662,85.838C181.662,79.602 180.412,73.662 178.154,68.244C186.427,80.099 191.287,94.527 191.287,110.134C191.287,150.651 158.642,183.294 118.125,183.294C77.608,183.294 44.965,150.651 44.965,110.134C44.965,69.619 77.608,36.974 118.125,36.974L118.125,36.975ZM355.627,53.195C356.527,53.195 357.411,53.257 358.279,53.365C353.276,54.825 349.619,59.437 349.619,64.91C349.619,71.556 355.006,76.943 361.651,76.943C368.297,76.943 373.685,71.556 373.685,64.91C373.685,64.46 373.655,64.016 373.605,63.578C375.331,66.608 376.327,70.12 376.327,73.898C376.327,85.443 367.169,94.6 355.627,94.6C344.081,94.6 334.925,85.442 334.925,73.898C334.925,62.354 344.082,53.195 355.625,53.195L355.627,53.195ZM419.561,70.703C422.951,70.703 426.198,71.257 429.231,72.266C419.257,72.539 411.253,80.691 411.253,90.73C411.253,100.942 419.529,109.22 429.741,109.22C439.805,109.22 447.974,101.177 448.211,91.17C449.243,94.234 449.811,97.522 449.811,100.953C449.811,117.771 436.377,131.201 419.561,131.201C402.744,131.201 389.313,117.771 389.313,100.954C389.313,84.137 402.746,70.704 419.563,70.704L419.561,70.703ZM324.483,158.893C328.103,158.893 331.613,159.319 334.985,160.103C319.451,160.173 306.878,172.783 306.878,188.333C306.878,203.929 319.521,216.57 335.116,216.57C350.712,216.57 363.353,203.93 363.353,188.334C363.353,184.224 362.468,180.324 360.89,176.804C366.804,184.521 370.318,194.191 370.318,204.729C370.318,230.153 349.908,250.563 324.482,250.563C299.057,250.563 278.646,230.153 278.646,204.728C278.646,179.301 299.056,158.891 324.482,158.891L324.483,158.893ZM433.803,180.561C434.968,180.561 436.12,180.618 437.265,180.701C427.022,185.714 419.965,196.234 419.965,208.407C419.965,225.437 433.77,239.243 450.8,239.243C464.2,239.243 475.6,230.691 479.852,218.749C480.372,221.557 480.656,224.449 480.656,227.415C480.656,253.403 459.789,274.269 433.801,274.269C407.814,274.269 386.946,253.403 386.946,227.415C386.946,201.428 407.814,180.562 433.802,180.562L433.803,180.561ZM230.03,241.41C230.672,241.41 231.312,241.422 231.95,241.436C205.73,248.342 186.394,272.206 186.394,300.594C186.394,334.384 213.784,361.774 247.576,361.774C281.366,361.774 308.756,334.384 308.756,300.594C308.756,295.762 308.178,291.069 307.119,286.561C314.249,299.305 318.313,314.011 318.313,329.691C318.313,378.561 278.899,417.976 230.03,417.976C181.162,417.976 141.746,378.561 141.746,329.692C141.746,280.825 181.162,241.41 230.031,241.41L230.03,241.41ZM114.338,251.25C117.588,251.25 120.65,251.96 123.388,253.23C123.011,253.194 122.631,253.172 122.244,253.172C115.468,253.172 109.974,258.664 109.974,265.44C109.974,272.215 115.468,277.707 122.244,277.707C128.954,277.707 134.394,272.32 134.502,265.637C135.228,267.797 135.627,270.115 135.627,272.539C135.627,284.409 126.205,293.829 114.337,293.829C102.467,293.829 93.047,284.407 93.047,272.539C93.047,260.669 102.469,251.249 114.337,251.249L114.338,251.25ZM103.848,319.223C108.878,319.223 113.758,319.838 118.43,320.973C118.087,320.963 117.747,320.943 117.402,320.943C93.982,320.943 74.996,339.929 74.996,363.349C74.996,386.769 93.982,405.755 117.402,405.755C128.169,405.755 137.992,401.735 145.472,395.125C149.286,400.043 153.516,404.625 158.115,408.81C147.917,428.347 127.499,441.63 103.848,441.63C69.935,441.63 42.644,414.34 42.644,380.427C42.644,346.514 69.934,319.224 103.848,319.224L103.848,319.223ZM395.361,322.409C397.531,322.409 399.661,322.567 401.748,322.849C389.385,326.775 380.426,338.341 380.426,352.005C380.426,368.9 394.122,382.595 411.018,382.595C425.732,382.595 438.015,372.205 440.941,358.362C441.767,361.858 442.217,365.505 442.217,369.264C442.217,376.401 440.633,383.147 437.811,389.186C437.291,389.169 436.771,389.146 436.247,389.146C417.337,389.146 400.882,400.146 392.934,416.056C368.084,414.806 348.504,394.438 348.504,369.264C348.504,343.276 369.372,322.408 395.36,322.408L395.361,322.409ZM436.248,407.837C438.234,407.837 440.168,408.033 442.041,408.397C434.625,410.143 429.101,416.785 429.101,424.733C429.101,434.013 436.621,441.533 445.898,441.533C455.178,441.533 462.698,434.013 462.698,424.733C462.698,424.439 462.668,424.153 462.652,423.86C464.752,427.944 465.942,432.586 465.942,437.53C465.942,454.04 452.758,467.224 436.248,467.224C419.738,467.224 406.555,454.041 406.555,437.531C406.555,421.021 419.738,407.838 436.248,407.838L436.248,407.837Z" style="fill:white;fill-rule:nonzero;"/>
    </g>
</svg>
